public/images/logos/sdks/rust.svg

<svg xmlns="http://www.w3.org/2000/svg" width="76" height="76" viewBox="0 0 76 76" fill="none"><path d="M36.4141 11.8743C36.4141 10.5627 37.4774 9.49935 38.7891 9.49935C40.1007 9.49935 41.1641 10.5627 41.1641 11.8743C41.1641 13.186 40.1007 14.2493 38.7891 14.2493C37.4774 14.2493 36.4141 13.186 36.4141 11.8743ZM11.0807 30.8743C11.0807 29.5627 12.1441 28.4993 13.4557 28.4993C14.7674 28.4993 15.8307 29.5627 15.8307 30.8743C15.8307 32.186 14.7674 33.2493 13.4557 33.2493C12.1441 33.2493 11.0807 32.186 11.0807 30.8743ZM60.1641 30.8743C60.1641 29.5627 61.2274 28.4993 62.5391 28.4993C63.8507 28.4993 64.9141 29.5627 64.9141 30.8743C64.9141 32.186 63.8507 33.2493 62.5391 33.2493C61.2274 33.2493 60.1641 32.186 60.1641 30.8743ZM17.0799 33.3886C17.9926 32.9362 18.4049 31.742 17.9996 30.721L17.1194 28.4993H20.5807V45.916H13.5975C12.7355 42.5361 12.467 39.002 12.8067 35.5083L17.0799 33.3886ZM33.2474 33.2493V28.4993H42.5289C43.0083 28.4993 45.9141 29.0076 45.9141 31.0006C45.9141 32.6554 43.6853 33.2487 41.8526 33.2487L33.2474 33.2493ZM20.5807 59.3743C20.5807 58.0627 21.6441 56.9993 22.9557 56.9993C24.2674 56.9993 25.3307 58.0627 25.3307 59.3743C25.3307 60.686 24.2674 61.7493 22.9557 61.7493C21.6441 61.7493 20.5807 60.686 20.5807 59.3743ZM50.6641 59.3743C50.6641 58.0627 51.7274 56.9993 53.0391 56.9993C54.3507 56.9993 55.4141 58.0627 55.4141 59.3743C55.4141 60.686 54.3507 61.7493 53.0391 61.7493C51.7274 61.7493 50.6641 60.686 50.6641 59.3743ZM51.8225 54.4489C50.7998 54.2224 49.7937 54.8948 49.5746 55.9537L48.5325 60.9793C41.7511 64.1536 33.9674 64.1151 27.2158 60.8736L26.1744 55.8481C25.9552 54.7906 24.9492 54.1168 23.9272 54.3439L19.6339 55.2965C18.8362 54.4476 18.0946 53.5443 17.4141 52.5926H38.3041C38.5405 52.5926 38.6982 52.5484 38.6982 52.3261V44.6896C38.6982 44.4674 38.5405 44.4232 38.3041 44.4232H32.1946V39.5827H38.8025C39.4057 39.5827 42.0276 39.7608 42.866 43.2241C43.1285 44.2893 43.705 47.754 44.0992 48.8633C44.4919 50.1073 46.0911 52.5924 47.7953 52.5924H58.5807C57.8574 53.5929 57.0662 54.5392 56.2133 55.4241L51.8225 54.4489ZM63.206 35.9273C63.3518 37.4459 63.3698 38.9749 63.2598 40.4968H60.6532C60.3923 40.4968 60.2874 40.6742 60.2874 40.9391V42.1793C60.2874 45.0986 58.6985 45.7335 57.3062 45.8952C55.9804 46.0499 54.5104 45.3201 54.3291 44.4795C53.547 39.9217 52.2437 38.9484 50.1855 37.2664C52.7397 35.5859 55.3975 33.1069 55.3975 29.7885C55.3975 26.2054 53.0265 23.9485 51.4105 22.8419C49.1431 21.2935 46.6327 20.9833 45.9555 20.9833H18.9974C22.7241 16.6687 27.7199 13.7475 33.2111 12.6722L36.3888 16.126C37.1072 16.9053 38.297 16.9342 39.0486 16.1893L42.604 12.666C49.9395 14.0897 56.2998 18.7829 59.9964 25.4997L57.5624 31.1953C57.1421 32.1809 57.571 33.3338 58.5198 33.7706L63.206 35.9273ZM69.4589 35.3325L69.3756 34.4797L71.8913 32.1332C72.4029 31.6562 72.2117 30.6961 71.5575 30.4523L68.3415 29.2497L68.0897 28.4195L70.0957 25.6333C70.5048 25.067 70.129 24.1629 69.4401 24.0496L66.049 23.498L65.6412 22.7365L67.0663 19.6085C67.3581 18.9715 66.8158 18.1567 66.1149 18.1834L62.6732 18.3033L62.1295 17.6438L62.9204 14.2912C63.0803 13.6103 62.3894 12.9188 61.7085 13.0787L58.3567 13.8688L57.6958 13.3252L57.8164 9.88336C57.8431 9.18647 57.0276 8.64214 56.392 8.93128L53.2646 10.3571L52.5031 9.94865L51.9502 6.5568C51.8382 5.86926 50.9335 5.49349 50.3672 5.90124L47.579 7.90727L46.7502 7.65609L45.5476 4.43948C45.3038 3.78393 44.3431 3.59537 43.8674 4.10436L41.5209 6.6221L40.6681 6.53882L38.856 3.61072C38.4895 3.01778 37.5082 3.01778 37.1431 3.61072L35.3309 6.53882L34.4774 6.6221L32.1303 4.10436C31.6546 3.59536 30.6939 3.7839 30.4501 4.43948L29.2475 7.65609L28.4181 7.90727L25.6305 5.90124C25.0642 5.49217 24.1588 5.86926 24.0468 6.5568L23.4939 9.94865L22.7324 10.3571L19.605 8.93128C18.9694 8.6408 18.154 9.18645 18.1806 9.88336L18.3005 13.3252L17.6396 13.8688L14.2878 13.0787C13.6069 12.9201 12.9154 13.6103 13.0753 14.2912L13.8648 17.6438L13.3225 18.3033L9.88069 18.1834C9.18648 18.1634 8.63948 18.9716 8.92862 19.6085L10.3544 22.7365L9.94598 23.498L6.55485 24.0496C5.86599 24.1615 5.49289 25.067 5.8993 25.6333L7.90531 28.4195L7.65348 29.2497L4.43689 30.4523C3.78396 30.6961 3.59279 31.6561 4.10311 32.1332L6.61949 34.4797L6.5362 35.3325L3.60876 37.1447C3.01583 37.5111 3.01583 38.4925 3.60876 38.8576L6.5362 40.6698L6.61949 41.5226L4.10311 43.8697C3.59277 44.3454 3.78398 45.3048 4.43689 45.55L7.65348 46.7525L7.90531 47.5827L5.8993 50.3696C5.49156 50.9372 5.86666 51.842 6.55555 51.9525L9.94603 52.5042L10.3544 53.267L8.92868 56.3937C8.6382 57.0293 9.18651 57.8468 9.88075 57.8188L13.3212 57.6982L13.8648 58.3591L13.0753 61.7123C12.9154 62.3918 13.607 63.082 14.2879 62.9221L17.6397 62.1326L18.3006 62.6749L18.1807 66.1174C18.154 66.8143 18.9695 67.3593 19.6051 67.0688L22.7324 65.6438L23.4939 66.0522L24.0469 69.442C24.1588 70.1322 25.0642 70.5053 25.6306 70.0989L28.4168 68.0916L29.2469 68.3441L30.4495 71.5593C30.6933 72.2123 31.654 72.4048 32.1297 71.8931L34.4768 69.3767L35.3303 69.462L37.1425 72.3895C37.5076 72.9797 38.4889 72.9811 38.8554 72.3895L40.6676 69.462L41.5203 69.3767L43.8668 71.8931C44.3425 72.4048 45.3032 72.2122 45.5471 71.5593L46.7496 68.3441L47.5798 68.0916L50.3666 70.0989C50.9329 70.5053 51.8377 70.131 51.9496 69.442L52.5026 66.0522L53.264 65.6438L56.3914 67.0688C57.027 67.3593 57.8411 66.8156 57.8158 66.1174L57.6959 62.6749L58.3561 62.1326L61.7079 62.9221C62.3888 63.082 63.0797 62.3918 62.9199 61.7123L62.1303 58.3591L62.6727 57.6982L66.1144 57.8188C66.8086 57.8468 67.3576 57.0292 67.0658 56.3937L65.6407 53.267L66.0484 52.5042L69.4396 51.9525C70.1298 51.8419 70.5042 50.9372 70.0951 50.3696L68.0891 47.5827L68.3409 46.7525L71.5569 45.55C72.2111 45.3048 72.4023 44.3454 71.8907 43.8697L69.375 41.5226L69.4583 40.6698L72.3857 38.8576C72.9786 38.4925 72.9793 37.5111 72.3862 37.1447L69.4589 35.3325Z" fill="#FF7043"/></svg>

<svg xmlns="http://www.w3.org/2000/svg" width="76" height="76" fill="none"><path fill="#ff7043" d="M36.414 11.874a2.375 2.375 0 1 1 4.75 0 2.375 2.375 0 0 1-4.75 0m-25.333 19a2.375 2.375 0 1 1 4.75 0 2.375 2.375 0 0 1-4.75 0m49.083 0a2.375 2.375 0 1 1 4.75 0 2.375 2.375 0 0 1-4.75 0M17.08 33.39c.913-.453 1.325-1.647.92-2.668l-.88-2.222h3.46v17.417h-6.982a30.3 30.3 0 0 1-.791-10.408zm16.167-.14V28.5h9.282c.48 0 3.385.509 3.385 2.502 0 1.654-2.229 2.248-4.061 2.248zM20.581 59.374a2.375 2.375 0 1 1 4.75 0 2.375 2.375 0 0 1-4.75 0m30.083 0a2.375 2.375 0 1 1 4.75 0 2.375 2.375 0 0 1-4.75 0m1.158-4.925c-1.022-.227-2.028.446-2.247 1.505l-1.043 5.025a24.81 24.81 0 0 1-21.316-.105l-1.042-5.026c-.219-1.057-1.225-1.731-2.247-1.504l-4.293.953a26 26 0 0 1-2.22-2.704h20.89c.236 0 .394-.045.394-.267V44.69c0-.223-.157-.267-.394-.267h-6.11v-4.84h6.608c.604 0 3.226.178 4.064 3.641.263 1.065.839 4.53 1.233 5.64.393 1.243 1.992 3.728 3.696 3.728h10.786a26 26 0 0 1-2.368 2.832zm11.384-18.522c.146 1.519.164 3.048.054 4.57h-2.607c-.26 0-.366.177-.366.442v1.24c0 2.92-1.588 3.554-2.98 3.716-1.327.155-2.797-.575-2.978-1.416-.782-4.557-2.085-5.53-4.144-7.213 2.555-1.68 5.212-4.16 5.212-7.477 0-3.584-2.37-5.84-3.986-6.947-2.268-1.548-4.778-1.859-5.456-1.859H18.998c3.727-4.314 8.723-7.235 14.214-8.31l3.178 3.453c.718.78 1.908.808 2.66.063l3.555-3.523C49.94 14.09 56.3 18.783 59.996 25.5l-2.434 5.695c-.42.986.009 2.139.958 2.576zm6.253-.594-.083-.853 2.515-2.347c.512-.477.32-1.437-.334-1.68l-3.216-1.203-.251-.83 2.006-2.787c.409-.566.033-1.47-.656-1.583l-3.391-.552-.408-.762 1.425-3.128c.292-.637-.25-1.451-.951-1.425l-3.442.12-.544-.66.791-3.352c.16-.68-.53-1.372-1.212-1.212l-3.351.79-.661-.544.12-3.442c.027-.697-.788-1.24-1.424-.952l-3.127 1.426-.762-.408-.553-3.392c-.112-.688-1.017-1.064-1.583-.656L47.58 7.907l-.829-.25-1.202-3.218c-.244-.655-1.205-.844-1.68-.335L41.52 6.622l-.853-.083-1.812-2.928c-.367-.593-1.348-.593-1.713 0L35.33 6.539l-.854.083-2.347-2.518c-.475-.509-1.436-.32-1.68.335l-1.203 3.217-.829.251-2.787-2.006c-.567-.409-1.472-.032-1.584.656l-.553 3.392-.762.408-3.127-1.426c-.636-.29-1.451.255-1.424.952l.12 3.442-.661.544-3.352-.79c-.681-.159-1.373.531-1.213 1.212l.79 3.353-.543.66-3.441-.12c-.695-.02-1.242.788-.952 1.424l1.425 3.128-.408.762-3.391.552c-.689.111-1.062 1.017-.656 1.583l2.006 2.787-.252.83-3.216 1.202c-.653.244-.844 1.204-.334 1.681L6.62 34.48l-.083.853-2.927 1.812c-.593.366-.593 1.347 0 1.713l2.927 1.812.083.853-2.516 2.347c-.51.475-.319 1.435.334 1.68l3.216 1.203.252.83L5.9 50.37c-.407.567-.032 1.472.657 1.583l3.39.551.408.763-1.425 3.127c-.29.635.258 1.453.952 1.425l3.44-.12.544.66-.79 3.353c-.16.68.532 1.37 1.213 1.21l3.352-.79.66.543-.12 3.442c-.026.697.79 1.242 1.425.952l3.127-1.425.762.408.553 3.39c.112.69 1.017 1.063 1.584.657l2.786-2.007.83.252 1.203 3.215c.243.653 1.204.846 1.68.334l2.347-2.516.853.085 1.813 2.927c.365.59 1.346.592 1.712 0l1.813-2.927.852-.085 2.347 2.516c.476.512 1.436.32 1.68-.334l1.203-3.215.83-.252 2.787 2.007c.566.406 1.47.032 1.583-.657l.553-3.39.761-.408 3.127 1.425c.636.29 1.45-.253 1.425-.952l-.12-3.442.66-.542 3.352.79c.68.159 1.372-.531 1.212-1.21l-.79-3.354.543-.66 3.441.12c.695.028 1.244-.79.952-1.425l-1.425-3.127.407-.763 3.392-.551c.69-.111 1.064-1.016.655-1.583l-2.006-2.787.252-.83 3.216-1.203c.654-.245.845-1.205.334-1.68l-2.516-2.347.083-.853 2.928-1.812c.593-.365.593-1.347 0-1.713z"/></svg>
